src/16/actions/window-next.svg

<svg xmlns="http://www.w3.org/2000/svg" viewBox="0 0 16 16">
  <defs id="defs3051">
    <style type="text/css" id="current-color-scheme">
      .ColorScheme-Text {
        color:#5d656b;
      }
      </style>
  </defs>
 <path style="fill:currentColor;fill-opacity:1;stroke:none" 
       d="M 2 2 L 2 5 L 2 14 L 3 14 L 14 14 L 14 13 L 14 2 L 3 2 L 2 2 z M 3 5 L 13 5 L 13 13 L 3 13 L 3 5 z M 6.8007812 6 L 6 6.75 L 7.0742188 7.7578125 L 8.4003906 9 L 7.0742188 10.242188 L 6 11.25 L 6.8007812 12 L 7.875 10.992188 L 10 9 L 7.875 7.0078125 L 6.8007812 6 z "
     class="ColorScheme-Text"
     />
</svg>

<svg xmlns="http://www.w3.org/2000/svg" viewBox="0 0 16 16"><path d="M2 2v12h12V2H2zm1 3h10v8H3V5zm3.8 1l-.8.75 1.074 1.008L8.4 9l-1.326 1.242L6 11.25l.8.75 1.075-1.008L10 9 7.875 7.008 6.801 6z" fill="currentColor" color="#5d656b"/></svg>
